img/svg/close.svg

<svg xmlns="http://www.w3.org/2000/svg" preserveAspectRatio="xMidYMid" width="23" height="22" viewBox="0 0 23 22"><defs><style>.cls-2 { fill: #ffffff; }</style></defs><path d="M22.46.747l-10.502 10.502 10.033 10.033-.709.709-10.033-10.033-10.002 10.002-.707-.707 10.002-10.002-10.533-10.533.709-.71 10.533 10.534 10.502-10.502.707.707z" id="path-1" class="cls-2" fill-rule="evenodd"/></svg>

<svg xmlns="http://www.w3.org/2000/svg" xmlns:xlink="http://www.w3.org/1999/xlink" preserveAspectRatio="xMidYMid" width="23" height="22" viewBox="0 0 23 22">
  <defs>
    <style>

      .cls-2 {
        fill: #ffffff;
      }
    </style>
  </defs>
  <path d="M22.460,0.747 C22.460,0.747 11.958,11.249 11.958,11.249 C11.958,11.249 21.991,21.282 21.991,21.282 C21.991,21.282 21.282,21.991 21.282,21.991 C21.282,21.991 11.249,11.958 11.249,11.958 C11.249,11.958 1.247,21.960 1.247,21.960 C1.247,21.960 0.540,21.253 0.540,21.253 C0.540,21.253 10.542,11.251 10.542,11.251 C10.542,11.251 0.009,0.718 0.009,0.718 C0.009,0.718 0.718,0.008 0.718,0.008 C0.718,0.008 11.251,10.542 11.251,10.542 C11.251,10.542 21.753,0.040 21.753,0.040 C21.753,0.040 22.460,0.747 22.460,0.747 Z" id="path-1" class="cls-2" fill-rule="evenodd"/>
</svg>
